public/Gumroad.svg

<svg width="148" height="48" viewBox="0 0 148 48" fill="none" xmlns="http://www.w3.org/2000/svg">
<path d="M87.5704 15.0003C84.5401 15.0003 81.5778 17.7445 81.2371 21.7096V15.3272H76.8852V34.5718H81.2904V25.2566C81.2904 22.6472 83.1399 18.9664 87.5704 18.9664V15.0003Z" fill="black"/>
<path d="M133.778 31.4909V18.3061H136.33C139.733 18.3061 142.497 20.4326 142.497 24.7922C142.497 29.1516 139.733 31.4909 136.33 31.4909H133.778ZM129.419 34.5744H136.862C141.434 34.5744 147.069 31.5972 147.069 24.7922C147.069 18.0934 141.434 15.3289 136.862 15.3289H129.419V34.5744Z" fill="black"/>
<path d="M112.738 25.005C112.738 21.4962 114.546 18.6253 117.523 18.6253C120.394 18.6253 121.989 21.4962 121.989 25.005C121.989 28.5139 120.394 31.3848 117.523 31.3848C114.546 31.3848 112.738 28.5139 112.738 25.005ZM108.272 25.2177C108.272 30.9595 111.249 35 115.928 35C119.33 35 121.35 32.7671 122.414 29.1519V34.5747H126.772V15.3291H122.414V20.4329C121.457 17.0304 119.437 15.0101 116.247 15.0101C111.462 15.0101 108.272 19.3696 108.272 25.2177Z" fill="black"/>
<path d="M8.99841 35C3.57561 35 0.385742 30.6405 0.385742 25.2177C0.385742 19.5823 3.8946 15.0101 10.5933 15.0101C17.5047 15.0101 19.844 19.6886 19.9503 22.3468H14.9528C14.8465 20.8582 13.5705 18.6253 10.487 18.6253C7.1908 18.6253 5.06423 21.4962 5.06423 25.005C5.06423 28.5139 7.1908 31.3848 10.487 31.3848C13.4642 31.3848 14.7401 29.0456 15.2718 26.7063H10.487V24.7923H20.5271V34.5747H16.1224V28.4076C15.8035 30.6405 14.4212 35 8.99841 35Z" fill="black"/>
<path d="M29.4579 34.9998C25.3111 34.9998 22.7592 32.2352 22.7592 26.7061V15.3289H27.225V26.7061C27.225 29.5769 28.6073 30.9592 30.9465 30.9592C35.5187 30.9592 37.2199 25.3238 37.2199 21.3896V15.3289H41.6857V34.5744H37.3262V27.4504C36.4756 31.3845 34.1364 34.9998 29.4579 34.9998Z" fill="black"/>
<path d="M68.3722 15C64.5621 15 62.1585 18.6806 61.3739 22.0837C61.2398 17.5231 58.9971 15 55.4086 15C52.3083 15 49.432 17.7648 48.6849 22.1388V15.3274H44.3315V34.5734H48.7407V27.6738C48.7407 25.9633 49.4538 18.9438 53.8925 18.9438C56.7678 18.9438 57.0676 21.5374 57.0676 25.0827V34.5734H61.4748V27.6738C61.4748 25.9633 62.2174 18.9438 66.656 18.9438C69.529 18.9438 69.8257 21.5374 69.8257 25.0827V34.5734H74.2389V23.1895C74.2589 17.7282 72.3307 15 68.3722 15Z" fill="black"/>
<path d="M97.0302 15C91.3222 15 87.4544 19.4757 87.4544 25C87.4544 31.0869 91.1328 34.9999 97.0302 34.9999C102.738 34.9999 106.675 30.5243 106.675 25C106.675 18.913 102.925 15 97.0302 15ZM97.0302 31.5933C93.7071 31.5933 91.5549 28.78 91.5549 25C91.5549 21.2199 93.7145 18.4066 97.0302 18.4066C100.345 18.4066 102.419 21.2199 102.419 25C102.419 28.78 100.343 31.5933 97.0302 31.5933Z" fill="black"/>
</svg>

<svg width="148" height="48" fill="none" xmlns="http://www.w3.org/2000/svg"><path d="M87.57 15c-3.03 0-5.992 2.744-6.333 6.71v-6.383h-4.352v19.245h4.405v-9.315c0-2.61 1.85-6.29 6.28-6.29V15Zm46.208 16.49V18.307h2.552c3.403 0 6.167 2.127 6.167 6.486 0 4.36-2.764 6.699-6.167 6.699h-2.552Zm-4.359 3.084h7.443c4.572 0 10.207-2.977 10.207-9.782 0-6.699-5.635-9.463-10.207-9.463h-7.443v19.245Zm-16.681-9.569c0-3.509 1.808-6.38 4.785-6.38 2.871 0 4.466 2.871 4.466 6.38s-1.595 6.38-4.466 6.38c-2.977 0-4.785-2.871-4.785-6.38Zm-4.466.213c0 5.741 2.977 9.782 7.656 9.782 3.402 0 5.422-2.233 6.486-5.848v5.423h4.358V15.329h-4.358v5.104c-.957-3.403-2.977-5.423-6.167-5.423-4.785 0-7.975 4.36-7.975 10.208ZM8.998 35C3.576 35 .386 30.64.386 25.218c0-5.636 3.509-10.208 10.207-10.208 6.912 0 9.251 4.679 9.357 7.337h-4.997c-.106-1.489-1.383-3.722-4.466-3.722-3.296 0-5.423 2.871-5.423 6.38s2.127 6.38 5.423 6.38c2.977 0 4.253-2.34 4.785-4.679h-4.785v-1.914h10.04v9.783h-4.405v-6.167C15.803 30.64 14.422 35 8.998 35Zm20.46 0c-4.147 0-6.699-2.765-6.699-8.294V15.33h4.466v11.377c0 2.87 1.382 4.253 3.721 4.253 4.573 0 6.274-5.635 6.274-9.57v-6.06h4.466v19.245h-4.36V27.45c-.85 3.934-3.19 7.55-7.868 7.55Zm38.914-20c-3.81 0-6.214 3.68-6.998 7.084C61.24 17.524 58.997 15 55.409 15c-3.1 0-5.977 2.765-6.724 7.139v-6.812H44.33v19.246h4.41v-6.9c0-1.71.713-8.73 5.151-8.73 2.876 0 3.176 2.594 3.176 6.14v9.49h4.407v-6.9c0-1.71.742-8.73 5.181-8.73 2.873 0 3.17 2.594 3.17 6.14v9.49h4.413V23.19c.021-5.46-1.908-8.19-5.866-8.19Zm28.658 0c-5.708 0-9.576 4.476-9.576 10 0 6.087 3.679 10 9.576 10 5.708 0 9.645-4.476 9.645-10 0-6.087-3.75-10-9.645-10Zm0 16.593c-3.323 0-5.475-2.813-5.475-6.593s2.16-6.593 5.475-6.593c3.315 0 5.389 2.813 5.389 6.593s-2.076 6.593-5.389 6.593Z" fill="#000"/></svg>
